X:1
T:Roll the Cotton Down
M:4/4
L:1/4
K:Bb
 d3/4 c/4| B F D F/2F/2| B3/2 G/2 AA/2-B/2| c3/2 d/2 c d| c3| d/2c/2|\
 B F D F/2F/2| B c d e| d3/2 B/2 c3/2 A/2| B3||
